logos/github.svg

<?xml version="1.0" encoding="UTF-8"?>
<svg xmlns="http://www.w3.org/2000/svg" xmlns:xlink="http://www.w3.org/1999/xlink" width="24pt" height="24pt" viewBox="0 0 24 24" version="1.1">
<g id="surface1">
<path style=" stroke:none;fill-rule:nonzero;fill:rgb(0%,0%,0%);fill-opacity:1;" d="M 22.367188 6.265625 C 21.296875 4.425781 19.839844 2.972656 18.003906 1.902344 C 16.167969 0.828125 14.164062 0.292969 11.988281 0.292969 C 9.8125 0.292969 7.808594 0.828125 5.96875 1.902344 C 4.132812 2.972656 2.679688 4.425781 1.609375 6.265625 C 0.535156 8.101562 0 10.105469 0 12.28125 C 0 14.890625 0.761719 17.242188 2.285156 19.328125 C 3.8125 21.414062 5.78125 22.859375 8.195312 23.660156 C 8.476562 23.710938 8.683594 23.675781 8.820312 23.550781 C 8.953125 23.425781 9.023438 23.269531 9.023438 23.082031 C 9.023438 23.050781 9.019531 22.769531 9.015625 22.238281 C 9.007812 21.707031 9.003906 21.246094 9.003906 20.851562 L 8.648438 20.914062 C 8.417969 20.953125 8.128906 20.972656 7.78125 20.96875 C 7.433594 20.960938 7.070312 20.925781 6.695312 20.859375 C 6.320312 20.789062 5.972656 20.632812 5.648438 20.390625 C 5.328125 20.144531 5.097656 19.824219 4.964844 19.429688 L 4.808594 19.070312 C 4.703125 18.832031 4.539062 18.566406 4.316406 18.273438 C 4.09375 17.984375 3.867188 17.785156 3.636719 17.683594 L 3.527344 17.601562 C 3.453125 17.550781 3.386719 17.488281 3.324219 17.414062 C 3.261719 17.34375 3.214844 17.269531 3.183594 17.199219 C 3.152344 17.125 3.179688 17.066406 3.261719 17.019531 C 3.34375 16.96875 3.496094 16.949219 3.714844 16.949219 L 4.027344 16.996094 C 4.234375 17.035156 4.492188 17.160156 4.800781 17.367188 C 5.105469 17.578125 5.359375 17.847656 5.554688 18.179688 C 5.796875 18.605469 6.085938 18.933594 6.421875 19.15625 C 6.761719 19.378906 7.101562 19.492188 7.445312 19.492188 C 7.789062 19.492188 8.085938 19.464844 8.335938 19.414062 C 8.585938 19.363281 8.820312 19.285156 9.035156 19.179688 C 9.128906 18.480469 9.386719 17.945312 9.800781 17.570312 C 9.207031 17.507812 8.675781 17.414062 8.203125 17.289062 C 7.730469 17.164062 7.238281 16.964844 6.734375 16.683594 C 6.230469 16.402344 5.8125 16.050781 5.476562 15.636719 C 5.144531 15.21875 4.871094 14.671875 4.660156 13.996094 C 4.445312 13.320312 4.339844 12.539062 4.339844 11.65625 C 4.339844 10.398438 4.75 9.324219 5.570312 8.441406 C 5.1875 7.492188 5.222656 6.433594 5.679688 5.257812 C 5.984375 5.164062 6.429688 5.234375 7.023438 5.46875 C 7.617188 5.703125 8.050781 5.902344 8.328125 6.066406 C 8.601562 6.234375 8.824219 6.375 8.992188 6.488281 C 9.957031 6.21875 10.957031 6.082031 11.988281 6.082031 C 13.015625 6.082031 14.015625 6.21875 14.984375 6.488281 L 15.578125 6.113281 C 15.984375 5.863281 16.460938 5.636719 17.011719 5.429688 C 17.566406 5.21875 17.988281 5.164062 18.277344 5.257812 C 18.746094 6.433594 18.789062 7.492188 18.402344 8.441406 C 19.226562 9.324219 19.636719 10.398438 19.636719 11.65625 C 19.636719 12.539062 19.527344 13.324219 19.316406 14.003906 C 19.101562 14.6875 18.828125 15.234375 18.488281 15.644531 C 18.152344 16.054688 17.730469 16.402344 17.222656 16.683594 C 16.71875 16.960938 16.230469 17.164062 15.757812 17.289062 C 15.285156 17.414062 14.75 17.507812 14.15625 17.570312 C 14.699219 18.039062 14.96875 18.777344 14.96875 19.789062 L 14.96875 23.082031 C 14.96875 23.269531 15.035156 23.425781 15.164062 23.550781 C 15.292969 23.675781 15.5 23.710938 15.78125 23.660156 C 18.195312 22.859375 20.164062 21.414062 21.6875 19.328125 C 23.210938 17.242188 23.976562 14.890625 23.976562 12.28125 C 23.976562 10.105469 23.4375 8.101562 22.367188 6.265625 Z M 22.367188 6.265625 "/>
</g>
</svg>

<svg xmlns="http://www.w3.org/2000/svg" width="32" height="32" viewBox="0 0 24 24"><path d="M22.37 6.27A11.9 11.9 0 0 0 11.99.29 11.89 11.89 0 0 0 0 12.28c0 2.61.76 4.96 2.29 7.05a11.76 11.76 0 0 0 5.9 4.33c.29.05.5.02.63-.1.13-.13.2-.29.2-.48v-.84L9 20.85l-.35.06c-.23.04-.52.06-.87.06s-.71-.04-1.08-.11a2.5 2.5 0 0 1-1.05-.47 1.99 1.99 0 0 1-.69-.96l-.15-.36a4.1 4.1 0 0 0-.5-.8 1.85 1.85 0 0 0-.67-.59l-.11-.08a1.02 1.02 0 0 1-.35-.4c-.03-.07 0-.13.08-.18.08-.05.24-.07.45-.07l.32.05c.2.04.46.16.77.37.3.2.56.48.75.81.25.43.54.75.87.98.34.22.68.33 1.03.33.34 0 .64-.03.89-.08s.48-.12.7-.23c.09-.7.35-1.23.76-1.61-.6-.06-1.12-.16-1.6-.28a6.36 6.36 0 0 1-1.47-.6 4.3 4.3 0 0 1-1.25-1.05c-.34-.42-.6-.97-.82-1.64a7.74 7.74 0 0 1-.32-2.34c0-1.26.41-2.34 1.23-3.22-.38-.95-.35-2 .11-3.18.3-.1.75-.03 1.34.2A9.85 9.85 0 0 1 9 6.5a11.1 11.1 0 0 1 6 0l.59-.38c.4-.25.88-.47 1.43-.68.56-.21.98-.27 1.27-.17.47 1.17.5 2.23.12 3.18a4.54 4.54 0 0 1 1.24 3.22c0 .88-.11 1.66-.32 2.34a4.81 4.81 0 0 1-.83 1.64c-.34.41-.76.76-1.27 1.04-.5.28-.99.48-1.46.6-.47.13-1.01.23-1.6.29.54.47.8 1.2.8 2.22v3.3c0 .18.08.34.2.46.13.13.34.16.62.11 2.42-.8 4.38-2.25 5.9-4.33a11.66 11.66 0 0 0 2.3-7.05c0-2.17-.54-4.18-1.61-6.01zm0 0"/></svg>
